exported-svg/maximize-2.svg

<svg height="24" viewBox="0 0 24 24" width="24" xmlns="http://www.w3.org/2000/svg"><path d="m20.2928932 4h-4.7928932c-.2761424 0-.5-.22385763-.5-.5s.2238576-.5.5-.5h6c.2761424 0 .5.22385763.5.5v6c0 .27614237-.2238576.5-.5.5s-.5-.22385763-.5-.5v-4.79289322l-6.1464466 6.14644662c-.1952622.1952621-.5118446.1952621-.7071068 0-.1952621-.1952622-.1952621-.5118446 0-.7071068zm-15.58578642 17h4.79289322c.27614237 0 .5.2238576.5.5s-.22385763.5-.5.5h-6c-.27614237 0-.5-.2238576-.5-.5v-6c0-.2761424.22385763-.5.5-.5s.5.2238576.5.5v4.7928932l6.1464466-6.1464466c.1952622-.1952621.5118446-.1952621.7071068 0 .1952621.1952622.1952621.5118446 0 .7071068z"/></svg>

<?xml version="1.0" encoding="UTF-8"?>
<svg width="24px" height="24px" viewBox="0 0 24 24" version="1.1" xmlns="http://www.w3.org/2000/svg" xmlns:xlink="http://www.w3.org/1999/xlink">
    <!-- Generator: Sketch 55.2 (78181) - https://sketchapp.com -->
    <title>maximize-2</title>
    <desc>Created with Sketch.</desc>
    <g id="maximize-2" stroke="none" stroke-width="1" fill="none" fill-rule="evenodd">
        <path d="M20.2928932,4 L15.5,4 C15.2238576,4 15,3.77614237 15,3.5 C15,3.22385763 15.2238576,3 15.5,3 L21.5,3 C21.7761424,3 22,3.22385763 22,3.5 L22,9.5 C22,9.77614237 21.7761424,10 21.5,10 C21.2238576,10 21,9.77614237 21,9.5 L21,4.70710678 L14.8535534,10.8535534 C14.6582912,11.0488155 14.3417088,11.0488155 14.1464466,10.8535534 C13.9511845,10.6582912 13.9511845,10.3417088 14.1464466,10.1464466 L20.2928932,4 Z" id="Combined-Shape" fill="#000000" fill-rule="nonzero"></path>
        <path d="M4.70710678,21 L9.5,21 C9.77614237,21 10,21.2238576 10,21.5 C10,21.7761424 9.77614237,22 9.5,22 L3.5,22 C3.22385763,22 3,21.7761424 3,21.5 L3,15.5 C3,15.2238576 3.22385763,15 3.5,15 C3.77614237,15 4,15.2238576 4,15.5 L4,20.2928932 L10.1464466,14.1464466 C10.3417088,13.9511845 10.6582912,13.9511845 10.8535534,14.1464466 C11.0488155,14.3417088 11.0488155,14.6582912 10.8535534,14.8535534 L4.70710678,21 Z" id="Combined-Shape" fill="#000000" fill-rule="nonzero"></path>
    </g>
</svg>
